ashes/src/images/icons/gift-cards.svg

<?xml version="1.0" encoding="UTF-8" standalone="no"?>
<svg width="18px" height="12px" viewBox="0 0 18 12" version="1.1" xmlns="http://www.w3.org/2000/svg" xmlns:xlink="http://www.w3.org/1999/xlink">
    <!-- Generator: Sketch 42 (36781) - http://www.bohemiancoding.com/sketch -->
    <title>Icons_Gift_Cards</title>
    <desc>Created with Sketch.</desc>
    <defs></defs>
    <g id="Page-1" stroke="none" stroke-width="1" fill="none" fill-rule="evenodd">
        <g id="Artboard-Copy" transform="translate(-197.000000, -245.000000)" fill="#FFFFFF">
            <g id="Icons_Gift_Cards" transform="translate(197.000000, 245.000000)">
                <path d="M12.3555559,5.51563714 L17.9280002,5.51563714 L17.9280002,1.21347954 C17.9280002,0.557947488 17.3966283,0.0267162356 16.7410963,0.0267162356 L1.3133139,0.0267162356 C0.657781842,0.0267162356 0.126409978,0.557947488 0.126409978,1.21347954 L0.126409978,10.707586 C0.126409978,11.3629774 0.657781842,11.8943493 1.3133139,11.8943493 L16.7410963,11.8943493 C17.3966283,11.8943493 17.9280002,11.3629774 17.9280002,10.707586 L17.9280002,6.40542839 L10.1738237,6.40542839 C10.8865848,7.10201908 12.0155566,8.11175218 13.0902524,8.67574597 L12.5730823,9.66101262 C11.4103636,9.05061694 10.2373802,8.01824535 9.4720304,7.2766589 L9.4720304,11.8942087 L8.58223915,11.8942087 L8.58223915,7.2766589 C7.81702991,8.01824535 6.64390595,9.05061694 5.48118726,9.66101262 L4.96401718,8.67574597 C6.04068147,8.11062728 7.16880967,7.10159725 7.88086766,6.40542839 L0.126409978,6.40542839 L0.126409978,5.51563714 L5.67368476,5.51563714 C5.54136909,5.38922716 5.42156787,5.25241191 5.32538942,5.10139488 C4.88766499,4.41366273 4.72216494,3.30887608 5.39344551,2.50823268 C5.77422218,2.05405668 6.34341861,1.80390835 6.99627904,1.80390835 C7.3268573,1.80390835 7.6530766,1.86943343 7.9399246,1.99260934 C8.17390258,2.09342797 8.38889797,2.24360134 8.58223915,2.4259748 L8.58223915,0.0267162356 L9.4720304,0.0267162356 L9.4720304,2.4031957 C9.65918466,2.23150873 9.86560274,2.08920962 10.0894567,1.99260934 C10.3763047,1.86943343 10.7023834,1.80390835 11.0331022,1.80390835 C11.685822,1.80390835 12.2550185,2.05405668 12.6359358,2.50823268 C13.3070757,3.30887608 13.1415757,4.41366273 12.7041325,5.10139488 C12.6078134,5.25241191 12.4880122,5.38922716 12.3555559,5.51563714" id="Fill-3"></path>
                <path d="M11.0331022,2.75753735 C10.8338554,2.75753735 10.6327805,2.79704925 10.4665774,2.86876125 C10.0378521,3.0533845 9.68097949,3.54046366 9.55780358,4.11022254 C9.46964,4.51771543 9.52166636,4.88836805 9.69349393,5.07706904 C9.83269958,5.23019525 10.0978934,5.31765577 10.4210192,5.31765577 C10.9259561,5.31765577 11.5790977,5.09267695 11.8995519,4.58914621 C12.1058294,4.26503609 12.2897496,3.57997557 11.9051764,3.12115937 C11.6401232,2.80506412 11.2448635,2.75753735 11.0331022,2.75753735" id="Fill-4"></path>
                <path d="M7.56266323,2.86876125 C7.39660073,2.79704925 7.19552591,2.75753735 6.99627904,2.75753735 C6.7843771,2.75753735 6.38925804,2.80506412 6.12420486,3.12115937 C5.73963168,3.57997557 5.92355187,4.26503609 6.12982933,4.58914621 C6.45028355,5.09267695 7.1034252,5.31765577 7.60836205,5.31765577 C7.92670709,5.31765577 8.19865025,5.22794546 8.33588733,5.07706904 C8.50771491,4.88836805 8.55960065,4.51813727 8.47157769,4.11050376 C8.34840178,3.54074488 7.99166973,3.0533845 7.56266323,2.86876125" id="Fill-5"></path>
            </g>
        </g>
    </g>
</svg>

<svg xmlns="http://www.w3.org/2000/svg" width="18" height="12"><g fill="#FFF" fill-rule="evenodd"><path d="M12.36 5.52h5.57v-4.3c0-.66-.53-1.2-1.2-1.2H1.33C.66.02.13.57.13 1.22v9.5c0 .65.53 1.18 1.2 1.18h15.42c.66 0 1.2-.54 1.2-1.2V6.4H10.2c.7.7 1.84 1.7 2.9 2.28l-.52.98c-1.16-.6-2.33-1.64-3.1-2.38v4.6h-.9V7.3c-.75.74-1.93 1.77-3.1 2.38l-.5-.98c1.07-.57 2.2-1.58 2.9-2.27H.14v-.88h5.54c-.13-.13-.25-.27-.34-.42-.44-.7-.6-1.8.06-2.6.37-.45.94-.7 1.6-.7.33 0 .65.07.94.2.23.1.45.24.64.43V.03h.9V2.4c.18-.17.4-.3.6-.4.3-.13.62-.2.95-.2.66 0 1.23.25 1.6.7.68.8.5 1.9.07 2.6-.1.15-.2.3-.34.42"/><path d="M11.03 2.76c-.2 0-.4.04-.56.1-.43.2-.8.68-.9 1.25-.1.47-.05.8.12 1 .1.18.4.27.7.27.5 0 1.13-.23 1.5-.73.2-.32.4-1 0-1.47-.3-.3-.7-.36-.9-.36m-3.48.1c-.16-.06-.36-.1-.56-.1-.23 0-.6.05-.9.36-.37.46-.2 1.15 0 1.47.34.5 1 .7 1.5.7.3 0 .6-.1.73-.23.17-.2.22-.58.13-1-.12-.55-.48-1.04-.9-1.22"/></g></svg>
